X:160
T:Becky's Reel
M:4/4
L:1/8
C:Frederick E. Wilson copyright 2005
R:Reel
K:ADor
"Ami"A2 eA fgaf|A2 eA "G"d2 cG|"Ami"A2 eA fgac'|"G"bage "D"f2ed|
"Ami"A2 eA fgaf|A2 eA "G"d2 gb|"Ami"abc'a "G"bage |"D"fedA "C"c2Bc:|:
"Ami"A2 (3AAA) GAFD|"C"EFGB "D"AGFD|"Ami"E2 (3AAA) GAFA|EAGA "G"BAGD|
"Ami"A2 (3AAA) "D"GAFD|"Ami"EA (3AAA) "G"BABd|"Emi"eg (3fed) egfa|bagf "
Emi(LastX)"ed
BG:|
